X: 225
T: You daiyuan
L: 1/8
M: 2/4
K: G
z d d d [I:setbarnb 1]| 
d e d c | 
A c d c | 
A AD2 | 
d2c A | 
G AD2 | 
F> GD2 | 
F> G A d | 
d GA2 | 
d d c d | 
c cA2 | 
A D F G | 
A2d2 | 
F A G E | 
D4 |]

@@@ Tune index: 9099
